localPackages/DesignSystem/Sources/DesignSystem/Resources/Assets.xcassets/IconSet/ic-briefcase.imageset/ic-briefcase.svg

<svg width="24" height="24" viewBox="0 0 24 24" fill="none" xmlns="http://www.w3.org/2000/svg">
<g id="ic-briefcase">
<path id="Icon" fill-rule="evenodd" clip-rule="evenodd" d="M10.5 3C9.67157 3 9 3.67157 9 4.5H15C15 3.67157 14.3284 3 13.5 3H10.5ZM10.5 1.5C8.84315 1.5 7.5 2.84315 7.5 4.5H4.5C2.84315 4.5 1.5 5.84315 1.5 7.5V9V19.5C1.5 21.1569 2.84315 22.5 4.5 22.5H19.5C21.1569 22.5 22.5 21.1569 22.5 19.5V9V7.5C22.5 5.84315 21.1569 4.5 19.5 4.5H16.5C16.5 2.84315 15.1569 1.5 13.5 1.5H10.5ZM9 6H15H16.5H19.5C20.3284 6 21 6.67157 21 7.5V9C21 10.6569 19.6569 12 18 12H15H14.25H9.75H9H6C4.34315 12 3 10.6569 3 9V7.5C3 6.67157 3.67157 6 4.5 6H7.5H9ZM9 13.5H6C4.84747 13.5 3.79613 13.0667 3 12.3542V19.5C3 20.3284 3.67157 21 4.5 21H19.5C20.3284 21 21 20.3284 21 19.5V12.3542C20.2039 13.0667 19.1525 13.5 18 13.5H15C15 14.7426 13.9926 15.75 12.75 15.75H11.25C10.0074 15.75 9 14.7426 9 13.5ZM13.5 13.5H10.5C10.5 13.9142 10.8358 14.25 11.25 14.25H12.75C13.1642 14.25 13.5 13.9142 13.5 13.5Z" fill="#0F0F0F"/>
</g>
</svg>

<svg xmlns="http://www.w3.org/2000/svg" width="24" height="24" viewBox="0 0 24 24">
  <g class="ic-briefcase">
    <path fill-rule="evenodd" d="M10.5 3A1.5 1.5 0 0 0 9 4.5h6A1.5 1.5 0 0 0 13.5 3h-3Zm0-1.5a3 3 0 0 0-3 3h-3a3 3 0 0 0-3 3v12a3 3 0 0 0 3 3h15a3 3 0 0 0 3-3v-12a3 3 0 0 0-3-3h-3a3 3 0 0 0-3-3h-3ZM9 6h10.5A1.5 1.5 0 0 1 21 7.5V9a3 3 0 0 1-3 3H6a3 3 0 0 1-3-3V7.5A1.5 1.5 0 0 1 4.5 6H9Zm0 7.5H6a4.484 4.484 0 0 1-3-1.146V19.5A1.5 1.5 0 0 0 4.5 21h15a1.5 1.5 0 0 0 1.5-1.5v-7.146a4.484 4.484 0 0 1-3 1.146h-3a2.25 2.25 0 0 1-2.25 2.25h-1.5A2.25 2.25 0 0 1 9 13.5Zm4.5 0h-3c0 .414.336.75.75.75h1.5a.75.75 0 0 0 .75-.75Z" class="Icon"/>
  </g>
</svg>
